client/gadgets/sizing/sizing_selected.svg

<svg width="18" height="20" viewBox="0 0 18 20" xmlns="http://www.w3.org/2000/svg"><title>sizing_selected</title><g fill="none" fill-rule="evenodd"><path d="M0 0h17v2H0V0zm0 2h1v16H0V2z" fill="#FFF"/><path d="M4 12h2v4H4v-4zm2 2h9v2H6v-2zm8-10h1v10h-1V4zm-8 6h2v2H6v-2zm2-2h2v2H8V8zm2-2h2v2h-2V6zm2-2h2v2h-2V4zM17 0h1v20h-1V0zM0 18h17v2H0v-2z" fill="#000"/><path d="M6 12h8v2H6v-2zm2-2h6v2H8v-2zm2-2h4v2h-4V8zm2-2h2v2h-2V6z" fill="#FFF"/></g></svg>

<?xml version="1.0" encoding="UTF-8"?>
<svg width="18px" height="20px" viewBox="0 0 18 20" version="1.1" xmlns="http://www.w3.org/2000/svg" xmlns:xlink="http://www.w3.org/1999/xlink">
    <!-- Generator: Sketch 42 (36781) - http://www.bohemiancoding.com/sketch -->
    <title>sizing_selected</title>
    <desc>Created with Sketch.</desc>
    <defs></defs>
    <g id="Symbols" stroke="none" stroke-width="1" fill="none" fill-rule="evenodd">
        <g id="sizing_selected">
            <g id="sizing">
                <path d="M0,0 L17,0 L17,2 L0,2 L0,0 Z M0,2 L1,2 L1,18 L0,18 L0,2 Z" id="Combined-Shape" fill="#FFFFFF"></path>
                <path d="M4,12 L6,12 L6,16 L4,16 L4,12 Z M6,14 L15,14 L15,16 L6,16 L6,14 Z M14,4 L15,4 L15,14 L14,14 L14,4 Z M6,10 L8,10 L8,12 L6,12 L6,10 Z M8,8 L10,8 L10,10 L8,10 L8,8 Z M10,6 L12,6 L12,8 L10,8 L10,6 Z M12,4 L14,4 L14,6 L12,6 L12,4 Z" id="Combined-Shape" fill="#000000"></path>
                <path d="M17,0 L18,0 L18,20 L17,20 L17,0 Z M0,18 L17,18 L17,20 L0,20 L0,18 Z" id="Combined-Shape" fill="#000000"></path>
                <path d="M6,12 L14,12 L14,14 L6,14 L6,12 Z M8,10 L14,10 L14,12 L8,12 L8,10 Z M10,8 L14,8 L14,10 L10,10 L10,8 Z M12,6 L14,6 L14,8 L12,8 L12,6 Z" id="Combined-Shape" fill="#FFFFFF"></path>
            </g>
        </g>
    </g>
</svg>
